src/images/crypto-icon-svg/dgb.svg

<svg xmlns="http://www.w3.org/2000/svg" width="32" height="32" viewBox="0 0 32 32">
  <g fill="none" fill-rule="evenodd">
    <circle cx="16" cy="16" r="16" fill="#006AD2"/>
    <path fill="#FFF" d="M12.3680548,24.9999014 C12.5312173,24.5628894 12.6830887,24.1561871 12.8468276,23.7176164 C12.5469165,23.7473371 12.275318,23.7742174 11.9971754,23.8017558 C11.8936222,24.0754424 11.7924085,24.3434136 11.6907201,24.6111769 C11.6672223,24.6730777 11.6474543,24.7374379 11.616429,24.7953205 C11.5494279,24.9203344 11.4464511,24.9981694 11.3029887,24.9985158 C10.6737687,24.9999706 10.0445487,24.9987929 9.4152947,24.997823 C9.40000245,24.9977883 9.3847102,24.989267 9.35178609,24.9794641 C9.48439802,24.6218112 9.61595883,24.2670681 9.75413157,23.8944857 C9.02095137,23.8748451 8.30770872,23.8623402 7.59843325,23.7811799 C7.6100974,23.6480257 11.6601017,13.4363362 11.820789,13.1286336 C11.8611049,13.1258624 11.9084397,13.1198005 11.9557406,13.1198005 C13.0461016,13.1192463 14.1364286,13.1193502 15.2267896,13.1194541 C15.2593069,13.1194541 15.2919597,13.1188999 15.3243752,13.12129 C15.6549726,13.1456762 15.8385135,13.4256326 15.7231943,13.7439696 C15.5708483,14.1645278 15.4092794,14.581622 15.2518472,15.0002749 C14.5657305,16.8248066 13.8796477,18.6493729 13.1938701,20.4740431 C13.1727458,20.5301937 13.1550122,20.5876606 13.1293104,20.6633826 C13.1869869,20.6665348 13.2323889,20.6729084 13.277418,20.670934 C16.3732335,20.5358746 18.6454039,19.0582229 20.1134596,16.2810357 C20.4344273,15.67384 20.6588266,15.0266356 20.7834703,14.3463158 C20.8559305,13.9509753 20.8789875,13.5549072 20.7803169,13.1596706 C20.6725252,12.7280278 20.4353428,12.3863091 20.0816206,12.1304964 C19.6144441,11.7926228 19.0875906,11.6486956 18.5198447,11.6456127 C18.4547424,11.6452317 18.3896402,11.6452663 18.3245379,11.6452663 C14.7931476,11.6452663 11.2617573,11.6452663 7.73036703,11.6452663 L7.5,11.6452663 C7.5237352,11.5855478 7.53489074,11.5452621 7.55448923,11.5098605 C8.01634224,10.6757761 8.47914465,9.84224581 8.9416419,9.00854236 C9.09727698,8.72806635 9.33117038,8.59044362 9.6482726,8.5906861 C11.5360006,8.59207168 13.4237624,8.59134425 15.3115243,8.59134425 L15.5135108,8.59134425 C15.7149887,8.05845021 15.9136184,7.53310758 16.1149607,7.00062921 L16.2861254,7.00062921 C16.8231511,7.00062921 17.3602108,7.00055993 17.8972027,7.00076777 C17.9406042,7.00076777 17.9846838,6.9975463 18.0271698,7.004301 C18.1537801,7.02432263 18.2268845,7.12339159 18.2079981,7.2538093 C18.2001994,7.307743 18.1795837,7.36042968 18.1603243,7.41190397 C18.0366978,7.7429883 17.9114777,8.07348375 17.7876817,8.40449879 C17.7669642,8.45988735 17.7504174,8.51686933 17.7281402,8.5847281 L18.5332042,8.5847281 C18.5523619,8.54097842 18.5737575,8.49743657 18.5908129,8.45216274 C18.7567219,8.0131071 18.921512,7.57360115 19.0874549,7.13454551 C19.1374684,7.00229191 19.1386212,7.00107952 19.2723182,7.00094097 C19.8364699,7.00028282 20.4006216,6.99948611 20.9647733,7.00125272 C21.2033798,7.00204943 21.2876398,7.12799865 21.2030408,7.35848987 C21.0679536,7.72660381 20.9285263,8.09302043 20.7912351,8.46026839 C20.7721452,8.51136165 20.7549542,8.56321698 20.7304052,8.6332234 C20.7860812,8.6431303 20.8309407,8.65334895 20.8763427,8.65892591 C21.6606893,8.75539691 22.4246235,8.93285506 23.1502084,9.2600944 C23.7014414,9.50866744 24.2022201,9.83400161 24.6142632,10.2890953 C25.1716334,10.9046392 25.4488266,11.6399665 25.4927706,12.4708295 C25.5352905,13.2745698 25.3875558,14.0510834 25.1206027,14.8007168 C24.4887718,16.5748826 23.5909032,18.1878016 22.2905875,19.5468823 C21.3952619,20.4826683 20.3612551,21.2266901 19.2270518,21.828586 C18.002926,22.4782152 16.7093917,22.9340017 15.3694043,23.2563915 C15.2496433,23.2852116 15.1864737,23.3380368 15.1445302,23.4558804 C14.9982536,23.8669127 14.8416691,24.2741346 14.6876616,24.6822572 C14.5930938,24.9329086 14.4976444,24.9995203 14.236286,24.9997282 C13.6721004,25.0002131 13.1079487,24.9999014 12.543797,24.9999014 L12.3680548,24.9999014 Z"/>
  </g>
</svg>

<svg xmlns="http://www.w3.org/2000/svg" width="32" height="32"><g fill="none" fill-rule="evenodd"><circle cx="16" cy="16" r="16" fill="#006AD2"/><path fill="#FFF" d="M12.368 25l.479-1.282-.85.084-.306.81c-.024.061-.044.125-.075.183-.067.125-.17.203-.313.204-.63.001-1.258 0-1.888-.001-.015 0-.03-.009-.063-.019l.402-1.085c-.733-.02-1.446-.032-2.156-.113.012-.133 4.062-10.345 4.223-10.652.04-.003.087-.01.135-.01h3.27c.033 0 .066 0 .098.002.331.025.515.305.4.623-.153.42-.315.838-.472 1.256l-2.058 5.474c-.021.056-.039.114-.065.19.058.003.103.009.148.007 3.096-.135 5.368-1.613 6.836-4.39a6.711 6.711 0 0 0 .67-1.935c.073-.395.096-.791-.003-1.186a1.763 1.763 0 0 0-.698-1.03c-.468-.337-.994-.481-1.562-.484H7.5c.024-.06.035-.1.054-.136l1.388-2.501a.754.754 0 0 1 .706-.418h5.866l.601-1.59h1.782c.044 0 .088-.003.13.003.127.02.2.12.181.25-.008.054-.028.106-.048.158-.123.331-.249.661-.372.992-.021.056-.038.113-.06.18h.805c.02-.043.04-.087.058-.132l.496-1.317c.05-.133.052-.134.185-.134.564 0 1.129-.002 1.693 0 .238.001.323.127.238.357-.135.369-.274.735-.412 1.102-.019.051-.036.103-.06.173.055.01.1.02.145.026.785.096 1.549.274 2.274.601.551.249 1.052.574 1.464 1.03.558.615.835 1.35.879 2.18.042.805-.105 1.581-.372 2.33-.632 1.775-1.53 3.388-2.83 4.747-.896.936-1.93 1.68-3.064 2.282-1.224.65-2.518 1.105-3.858 1.427-.12.03-.183.082-.224.2-.147.41-.303.818-.457 1.226-.095.25-.19.318-.452.318H12.368z"/></g></svg>
